X:45
T:Take me Right
M:6/8
L:1/8
B:Thompson's Compleat Collection of 200 Favourite Country Dances, vol. 3 (London, 1773)
Z:Transcribed and edited by Flynn Titford-Mock, 2007
Z:abc's:AK/Fiddler's Companion
K:G
G2g G2g | bfe d2g | edc B>AG | FAG FED | G2g G2g | gfe d2g | egf ed^c | d3 D3 :|
|: d2D d2D | dcB c3 | c2[Cc] c2[Cc] | cBA B3 | G2A B2c | def gfe | dcB AGF | G3 [G,3G3] :|

